!!!COM: Bach, Johann Sebastian
!!!OPR: Inventio
!!!OTL: Inventio 1
!!!XEN: Two-part Inventions [for keyboard]
!!!ONM: No. 1
!!!ONB: In C major.
!!!SCT: BWV 772
!!!YEC: Copyright 1994, David Huron
!!!YEM: Rights to all derivative electronic formats reserved.
!! Performance duration: 1:29; performance tempo: 59.3 quarter-notes per minute.
!! (Andras Schiff, piano, "Two-Part Inventions BWV 772a-786; Three-part
!! Inventions BWV 787-801" Decca 411 974-2)
**kern	**kern
*staff2	*staff1
*clefF4	*clefG2
*k[]	*k[]
*C:	*C:
*M4/4	*M4/4
*MM59.3	*MM59.3
=1-	=1-
2r	16r
.	16ff
.	16dd
.	16g
.	16e
.	16ee
.	16ee
.	16cc
16r	8cc
16A	.
16E	8b
16G	.
16B	8ccM
16d	.
16E	8cc
16e	.
=2	=2
8GG	16b
.	16ff
8F	16ff
.	16ee
4r	16a
.	16ee
.	16dd
.	16b
16r	8dd
16F	.
16A	8dd
16E	.
16G	8eeM
16B	.
16g	8ee
16c	.
=3	=3
8B	16g
.	16a
8g	16gg
.	16ff
8B	16dd
.	16ff
8d	16cc
.	16dd
8GG	16ff
.	16a
8C	16gg
.	16g
8c	16aa
.	16a
8A	16ff
.	16dd
=4	=4
8G	16b
.	16bb
8A	16f
.	16g
8A#	16c
.	16cc
8c	16ff
.	16b
8BB	16e
.	16d
8d	16b
.	16dd
[4B	16dd#
.	16a
.	16a
.	16dd
=5	=5
16d]	8ff
16e	.
16c	8f
16DD#	.
16B	8.ggW
16B	.
16A#	.
16f	16g
8F	16aa
.	16ff
8d	16dd
.	16c#
8CC	16ee
.	16aa
8D	16aa#
.	16cc
=6	=6
8E	16gg
.	16a
8g#	16g
.	16cc
8F	16ee
.	16dd
8G	16gg
.	16ff
8.c	16ff
.	32ee
.	32b
.	16ff
16c	16b
8GG	8bM
8G	16ee
.	16a
=7	=7
16r	8dd
16d	.
16A	8r
16D	.
16C	4r
16F	.
16G	.
16G	.
8c	16r
.	16cc
8d	16b
.	16a
8d#	16cc
.	16gg
8a	16ee
.	16cc
=8	=8
16e	8gg#M
16d	.
16e	8r
16B#	.
16e	4r
16e	.
16E#	.
16A	.
8E	16r
.	16g
8AA	16aa
.	16cc
8g	16a
.	16b
8B	16cc
.	16ee
=9	=9
16G	8dd
16A	.
16f	8r
16e	.
16d	4r
16B	.
16A	.
16f	.
8G	16r
.	16ee
8G	16ff
.	16dd
8E	16aa
.	16ee
8c	16ff
.	16b
=10	=10
16d	8ee
16F	.
16B	8r
16C	.
16F	4r
16A	.
16D	.
16f	.
8c	16r
.	16gg
8BB	16g
.	16cc
8d	16a
.	16a
8e	16b#
.	16cc
=11	=11
16f	8ff
16C-	.
16d	8d#
16e	.
16f	8gg
16A	.
16e	8ee
16f-	.
16g	8dd
16C	.
16E	8cc
16BB	.
16A	8ggn
16D	.
16f	8dd#
16B	.
=12	=12
16AA	8g
16a	.
16e	8e#
16F	.
16A	8dd#
16e	.
16c	8e
16e	.
16g	8dd
16d	.
16f	8bb
16E	.
16B#	[4ee
16D	.
16C	.
16AA	.
=13	=13
8d	16ee]
.	16a
8G	16cc#
.	16g#
8.dW	16ff
.	16f#
.	16cc#
16B	16gg
16D	16ff
16e	16g
16g	16b
16Fn	16ee
16A#	16gg
16A	16b
16e#	16cc
16G	16dd
=14	=14
16c	16a
16c	16dd
16G	16a#
16B	16a
16B	16dd
16B	16b
16E	16bb
16c	16aa
8f	16ff#
.	16b
8G	16cc
.	16b
8g	8dd
8F	16gg
.	16dd
=15	=15
8B	16cc
.	16gg
8a	16dd
.	16g
4r	16cc
.	16b
.	16f
.	16cc
16r	[2d
16e	.
16D	.
16G	.
16B	.
16c	.
16A#	.
16d	.
=16	=16
[2G	16e]
.	16e
.	16b
.	16ee
.	16e
.	16b
.	16cc
.	16f
16e]	[2cc
16F	.
16b	.
16G	.
16B	.
16d	.
16BB	.
16D	.
=17	=17
[2D	16dd]
.	16ee
.	16ee
.	16f
.	16aa
.	16a
.	16f
.	16b
16F]	[2ff
16E	.
16d	.
16E	.
16c	.
16A	.
16c	.
16GG	.
=18	=18
[2E	16ff]
.	16f
.	16ccc
.	16gg
.	16b
.	16dd
.	16aa
.	16g
16g]	[2dd
16D	.
16g	.
16f-	.
16f	.
16G	.
16e-	.
16c	.
=19	=19
8c	16cc]
.	16a
8c-	16cc
.	16cc
8f	16b
.	16g
8a	16ee
.	16aa
8G	16g
.	16gg
8b	16a
.	16gg
8D	16a
.	16ee
8E-	16cc
.	16d
=20	=20
8e	16dd
.	16ee
8d	16b
.	16f
8A	16a
.	16cc
8c	16f
.	16b
16A	8dd
16c	.
16B	8g
16F	.
16B	8ee
16F	.
16c	16dd
16A	16gg
=21	=21
8D	16ff
.	16b-
8G	16a
.	16ff
8c	16ccc
.	16cc
8E	16ff
.	16dd-
16B	16gg
16E	16bn
16a	16a
16c	16cc
8d	16g
.	16gg
8D	16ee
.	16gg
=22	=22
1f; 1C;	1g; 1g; 1cc;
==|!	==|!
*-	*-
!!!CDT: 1685/3//-1750/7/28
!!!OCY: Deutschland
!!!AGN: polyphony
!!!AST: baroque
!!!AMT: simple quadruple
!!!SCA: Bach-Werke-Verzeichnis
!!!YOR: Bach Gesellschaft
!!!AIN: cemb; clavi
!!!EEV: 1.0
!!!RDT: 1986 November
!!!YER: 1995 May 22
!!!YEN: Canada
!!!EFL: 1/15
!!!EED: David Huron
